games/flying-prototype/assets/textures/postprocess/test.3DL
#Created by: Adobe Photoshop Export Color Lookup Plugin
#Description: watchmen.png
0 33 66 99 132 165 198 231 264 297 330 363 396 429 462 495 528 561 594 627 660 693 726 759 792 825 858 891 924 957 990 1023
0 0 0
0 0 0
0 0 0
4 4 66
12 12 215
21 21 363
29 29 511
38 38 659
47 47 807
55 55 955
64 64 1103
72 72 1251
81 81 1399
89 89 1547
98 98 1695
107 107 1843
115 115 1992
124 124 2140
132 132 2288
141 141 2436
149 149 2584
158 158 2732
167 167 2880
175 175 3028
184 184 3176
192 192 3324
201 201 3472
209 209 3621
218 218 3769
224 224 3871
224 224 3871
224 224 3871
0 0 0
0 0 0
0 0 0
4 4 66
12 12 215
21 21 363
29 29 511
38 38 659
47 47 807
55 55 955
64 64 1103
72 72 1251
81 81 1399
89 89 1547
98 98 1695
107 107 1843
115 115 1992
124 124 2140
132 132 2288
141 141 2436
149 149 2584
158 158 2732
167 167 2880
175 175 3028
184 184 3176
192 192 3324
201 201 3472
209 209 3621
218 218 3769
224 224 3871
224 224 3871
224 224 3871
0 0 0
0 0 0
0 0 0
4 4 66
12 12 215
21 21 363
29 29 511
38 38 659
47 47 807
55 55 955
64 64 1103
72 72 1251
81 81 1399
89 89 1547
98 98 1695
107 107 1843
115 115 1992
124 124 2140
132 132 2288
141 141 2436
149 149 2584
158 158 2732
167 167 2880
175 175 3028
184 184 3176
192 192 3324
201 201 3472
209 209 3621
218 218 3769
224 224 3871
224 224 3871
224 224 3871
4 66 4
4 66 4
4 66 4
4 66 66
12 75 215
21 84 363
29 92 511
38 101 659
47 109 807
55 118 955
64 126 1103
72 135 1251
81 144 1399
89 152 1547
98 161 1695
107 169 1843
115 178 1992
124 186 2140
132 195 2288
141 204 2436
149 212 2584
158 221 2732
167 230 2880
175 238 3028
184 247 3176
192 255 3324
201 263 3472
209 272 3621
218 280 3769
224 286 3871
224 286 3871
224 286 3871
12 215 12
12 215 12
12 215 12
12 215 75
12 215 215
21 223 363
29 232 511
38 240 659
47 249 807
55 258 955
64 266 1103
72 275 1251
81 283 1399
89 292 1547
98 301 1695
107 309 1843
115 317 1992
124 326 2140
132 334 2288
141 343 2436
149 352 2584
158 360 2732
167 369 2880
175 377 3028
184 386 3176
192 394 3324
201 403 3472
209 412 3621
218 420 3769
224 426 3871
224 426 3871
224 426 3871
21 363 21
21 363 21
21 363 21
21 363 84
21 363 223
21 363 363
29 371 511
38 380 659
47 388 807
55 397 955
64 406 1103
72 414 1251
81 423 1399
89 431 1547
98 440 1695
107 448 1843
115 457 1992
124 465 2140
132 474 2288
141 483 2436
149 491 2584
158 500 2732
167 508 2880
175 517 3028
184 526 3176
192 534 3324
201 543 3472
209 551 3621
218 559 3769
224 566 3871
224 566 3871
224 566 3871
29 511 29
29 511 29
29 511 29
29 511 92
29 511 232
29 511 371
29 511 511
38 519 659
47 528 807
55 536 955
64 545 1103
72 554 1251
81 562 1399
89 571 1547
98 579 1695
107 588 1843
115 597 1992
124 605 2140
132 614 2288
141 622 2436
149 631 2584
158 639 2732
167 648 2880
175 656 3028
184 665 3176
192 673 3324
201 682 3472
209 691 3621
218 699 3769
224 706 3871
224 706 3871
224 706 3871
38 659 38
38 659 38
38 659 38
38 659 101
38 659 240
38 659 380
38 659 519
38 659 659
47 667 807
55 676 955
64 684 1103
72 693 1251
81 702 1399
89 710 1547
98 719 1695
107 727 1843
115 736 1992
124 744 2140
132 753 2288
141 762 2436
149 770 2584
158 779 2732
167 787 2880
175 796 3028
184 805 3176
192 813 3324
201 821 3472
209 830 3621
218 839 3769
224 845 3871
224 845 3871
224 845 3871
47 807 47
47 807 47
47 807 47
47 807 109
47 807 249
47 807 388
47 807 528
47 807 667
47 807 807
55 816 955
64 824 1103
72 833 1251
81 841 1399
89 850 1547
98 859 1695
107 867 1843
115 876 1992
124 884 2140
132 893 2288
141 901 2436
149 910 2584
158 919 2732
167 927 2880
175 936 3028
184 944 3176
192 952 3324
201 961 3472
209 970 3621
218 978 3769
224 984 3871
224 984 3871
224 984 3871
55 955 55
55 955 55
55 955 55
55 955 118
55 955 258
55 955 397
55 955 536
55 955 676
55 955 816
55 955 955
64 964 1103
72 972 1251
81 981 1399
89 989 1547
98 998 1695
107 1006 1843
115 1015 1992
124 1024 2140
132 1032 2288
141 1041 2436
149 1049 2584
158 1058 2732
167 1066 2880
175 1075 3028
184 1084 3176
192 1092 3324
201 1100 3472
209 1109 3621
218 1118 3769
224 1124 3871
224 1124 3871
224 1124 3871
64 1103 64
64 1103 64
64 1103 64
64 1103 126
64 1103 266
64 1103 406
64 1103 545
64 1103 684
64 1103 824
64 1103 964
64 1103 1103
72 1112 1251
81 1120 1399
89 1129 1547
98 1137 1695
107 1146 1843
115 1155 1992
124 1163 2140
132 1172 2288
141 1180 2436
149 1189 2584
158 1197 2732
167 1206 2880
175 1214 3028
184 1223 3176
192 1232 3324
201 1240 3472
209 1249 3621
218 1257 3769
224 1263 3871
224 1263 3871
224 1263 3871
72 1251 72
72 1251 72
72 1251 72
72 1251 135
72 1251 275
72 1251 414
72 1251 554
72 1251 693
72 1251 833
72 1251 972
72 1251 1112
72 1251 1251
81 1260 1399
89 1268 1547
98 1277 1695
107 1285 1843
115 1294 1992
124 1303 2140
132 1311 2288
141 1320 2436
149 1328 2584
158 1337 2732
167 1345 2880
175 1354 3028
184 1362 3176
192 1371 3324
201 1380 3472
209 1388 3621
218 1397 3769
224 1403 3871
224 1403 3871
224 1403 3871
81 1399 81
81 1399 81
81 1399 81
81 1399 144
81 1399 283
81 1399 423
81 1399 562
81 1399 702
81 1399 841
81 1399 981
81 1399 1120
81 1399 1260
81 1399 1399
89 1408 1547
98 1417 1695
107 1425 1843
115 1434 1992
124 1442 2140
132 1451 2288
141 1459 2436
149 1468 2584
158 1477 2732
167 1485 2880
175 1494 3028
184 1502 3176
192 1511 3324
201 1520 3472
209 1528 3621
218 1536 3769
224 1543 3871
224 1543 3871
224 1543 3871
89 1547 89
89 1547 89
89 1547 89
89 1547 152
89 1547 292
89 1547 431
89 1547 571
89 1547 710
89 1547 850
89 1547 989
89 1547 1129
89 1547 1268
89 1547 1408
89 1547 1547
98 1556 1695
107 1564 1843
115 1573 1992
124 1582 2140
132 1590 2288
141 1599 2436
149 1607 2584
158 1616 2732
167 1624 2880
175 1633 3028
184 1641 3176
192 1650 3324
201 1658 3472
209 1668 3621
218 1676 3769
224 1682 3871
224 1682 3871
224 1682 3871
98 1695 98
98 1695 98
98 1695 98
98 1695 161
98 1695 301
98 1695 440
98 1695 579
98 1695 719
98 1695 859
98 1695 998
98 1695 1137
98 1695 1277
98 1695 1417
98 1695 1556
98 1695 1695
107 1704 1843
115 1713 1992
124 1721 2140
132 1730 2288
141 1738 2436
149 1747 2584
158 1756 2732
167 1764 2880
175 1772 3028
184 1781 3176
192 1790 3324
201 1798 3472
209 1807 3621
218 1816 3769
224 1821 3871
224 1821 3871
224 1821 3871
107 1843 107
107 1843 107
107 1843 107
107 1843 169
107 1843 309
107 1843 448
107 1843 588
107 1843 727
107 1843 867
107 1843 1006
107 1843 1146
107 1843 1285
107 1843 1425
107 1843 1564
107 1843 1704
107 1843 1843
115 1852 1992
124 1861 2140
132 1869 2288
141 1878 2436
149 1886 2584
158 1895 2732
167 1904 2880
175 1912 3028
184 1920 3176
192 1929 3324
201 1938 3472
209 1947 3621
218 1955 3769
224 1961 3871
224 1961 3871
224 1961 3871
115 1992 115
115 1992 115
115 1992 115
115 1992 178
115 1992 317
115 1992 457
115 1992 597
115 1992 736
115 1992 876
115 1992 1015
115 1992 1155
115 1992 1294
115 1992 1434
115 1992 1573
115 1992 1713
115 1992 1852
115 1992 1992
124 2000 2140
132 2009 2288
141 2017 2436
149 2026 2584
158 2035 2732
167 2043 2880
175 2052 3028
184 2060 3176
192 2069 3324
201 2077 3472
209 2086 3621
218 2095 3769
224 2100 3871
224 2100 3871
224 2100 3871
124 2140 124
124 2140 124
124 2140 124
124 2140 186
124 2140 326
124 2140 465
124 2140 605
124 2140 744
124 2140 884
124 2140 1024
124 2140 1163
124 2140 1303
124 2140 1442
124 2140 1582
124 2140 1721
124 2140 1861
124 2140 2000
124 2140 2140
132 2148 2288
141 2157 2436
149 2166 2584
158 2174 2732
167 2183 2880
175 2191 3028
184 2199 3176
192 2208 3324
201 2217 3472
209 2226 3621
218 2234 3769
224 2240 3871
224 2240 3871
224 2240 3871
132 2288 132
132 2288 132
132 2288 132
132 2288 195
132 2288 334
132 2288 474
132 2288 614
132 2288 753
132 2288 893
132 2288 1032
132 2288 1172
132 2288 1311
132 2288 1451
132 2288 1590
132 2288 1730
132 2288 1869
132 2288 2009
132 2288 2148
132 2288 2288
141 2296 2436
149 2305 2584
158 2314 2732
167 2322 2880
175 2330 3028
184 2339 3176
192 2348 3324
201 2357 3472
209 2365 3621
218 2374 3769
224 2380 3871
224 2380 3871
224 2380 3871
141 2436 141
141 2436 141
141 2436 141
141 2436 204
141 2436 343
141 2436 483
141 2436 622
141 2436 762
141 2436 901
141 2436 1041
141 2436 1180
141 2436 1320
141 2436 1459
141 2436 1599
141 2436 1738
141 2436 1878
141 2436 2017
141 2436 2157
141 2436 2296
141 2436 2436
149 2444 2584
158 2453 2732
167 2462 2880
175 2470 3028
184 2479 3176
192 2487 3324
201 2496 3472
209 2505 3621
218 2513 3769
224 2519 3871
224 2519 3871
224 2519 3871
149 2584 149
149 2584 149
149 2584 149
149 2584 212
149 2584 352
149 2584 491
149 2584 631
149 2584 770
149 2584 910
149 2584 1049
149 2584 1189
149 2584 1328
149 2584 1468
149 2584 1607
149 2584 1747
149 2584 1886
149 2584 2026
149 2584 2166
149 2584 2305
149 2584 2444
149 2584 2584
158 2593 2732
167 2601 2880
175 2610 3028
184 2618 3176
192 2627 3324
201 2635 3472
209 2644 3621
218 2652 3769
224 2658 3871
224 2658 3871
224 2658 3871
158 2732 158
158 2732 158
158 2732 158
158 2732 221
158 2732 360
158 2732 500
158 2732 639
158 2732 779
158 2732 919
158 2732 1058
158 2732 1197
158 2732 1337
158 2732 1477
158 2732 1616
158 2732 1756
158 2732 1895
158 2732 2035
158 2732 2174
158 2732 2314
158 2732 2453
158 2732 2593
158 2732 2732
167 2740 2880
175 2749 3028
184 2758 3176
192 2766 3324
201 2775 3472
209 2784 3621
218 2792 3769
224 2798 3871
224 2798 3871
224 2798 3871
167 2880 167
167 2880 167
167 2880 167
167 2880 230
167 2880 369
167 2880 508
167 2880 648
167 2880 787
167 2880 927
167 2880 1066
167 2880 1206
167 2880 1345
167 2880 1485
167 2880 1624
167 2880 1764
167 2880 1904
167 2880 2043
167 2880 2183
167 2880 2322
167 2880 2462
167 2880 2601
167 2880 2740
167 2880 2880
175 2889 3028
184 2897 3176
192 2906 3324
201 2914 3472
209 2923 3621
218 2931 3769
224 2938 3871
224 2938 3871
224 2938 3871
175 3028 175
175 3028 175
175 3028 175
175 3028 238
175 3028 377
175 3028 517
175 3028 656
175 3028 796
175 3028 936
175 3028 1075
175 3028 1214
175 3028 1354
175 3028 1494
175 3028 1633
175 3028 1772
175 3028 1912
175 3028 2052
175 3028 2191
175 3028 2330
175 3028 2470
175 3028 2610
175 3028 2749
175 3028 2889
175 3028 3028
184 3037 3176
192 3045 3324
201 3054 3472
209 3063 3621
218 3071 3769
224 3077 3871
224 3077 3871
224 3077 3871
184 3176 184
184 3176 184
184 3176 184
184 3176 247
184 3176 386
184 3176 526
184 3176 665
184 3176 805
184 3176 944
184 3176 1084
184 3176 1223
184 3176 1362
184 3176 1502
184 3176 1641
184 3176 1781
184 3176 1920
184 3176 2060
184 3176 2199
184 3176 2339
184 3176 2479
184 3176 2618
184 3176 2758
184 3176 2897
184 3176 3037
184 3176 3176
192 3184 3324
201 3194 3472
209 3202 3621
218 3210 3769
224 3217 3871
224 3217 3871
224 3217 3871
192 3324 192
192 3324 192
192 3324 192
192 3324 255
192 3324 394
192 3324 534
192 3324 673
192 3324 813
192 3324 952
192 3324 1092
192 3324 1232
192 3324 1371
192 3324 1511
192 3324 1650
192 3324 1790
192 3324 1929
192 3324 2069
192 3324 2208
192 3324 2348
192 3324 2487
192 3324 2627
192 3324 2766
192 3324 2906
192 3324 3045
192 3324 3184
192 3324 3324
201 3333 3472
209 3342 3621
218 3350 3769
224 3356 3871
224 3356 3871
224 3356 3871
201 3472 201
201 3472 201
201 3472 201
201 3472 263
201 3472 403
201 3472 543
201 3472 682
201 3472 821
201 3472 961
201 3472 1100
201 3472 1240
201 3472 1380
201 3472 1520
201 3472 1658
201 3472 1798
201 3472 1938
201 3472 2077
201 3472 2217
201 3472 2357
201 3472 2496
201 3472 2635
201 3472 2775
201 3472 2914
201 3472 3054
201 3472 3194
201 3472 3333
201 3472 3472
209 3481 3621
218 3489 3769
224 3495 3871
224 3495 3871
224 3495 3871
209 3621 209
209 3621 209
209 3621 209
209 3621 272
209 3621 412
209 3621 551
209 3621 691
209 3621 830
209 3621 970
209 3621 1109
209 3621 1249
209 3621 1388
209 3621 1528
209 3621 1668
209 3621 1807
209 3621 1947
209 3621 2086
209 3621 2226
209 3621 2365
209 3621 2505
209 3621 2644
209 3621 2784
209 3621 2923
209 3621 3063
209 3621 3202
209 3621 3342
209 3621 3481
209 3621 3621
218 3629 3769
224 3635 3871
224 3635 3871
224 3635 3871
218 3769 218
218 3769 218
218 3769 218
218 3769 280
